X: 7
T: Lad O'Beirne's
R: reel
M: 4/4
L: 1/8
K: Gmaj
|:DGGF G2BG | (3ABc BG AGEG | DGGF GABd | egdg edge |
dB B2 GBdB | cE E2 GEDB, | DEGA B2 eB |1 dBAc BG GE :|2 dBAc BG GA|
|:Bdd^c d2 ef | g2 bg abge | dB B2 GBdB | cE E2 GE DB, |
Bdd^c d2 ef | g2 bg abge | DEGA B2 eB | dBAc BG G2 :||


Tune 406	Setting 28592

